X: 107
T: the Rambling Rover   [C]
C: Andy M. Stewart (1952-2015), Scotland
R: song
D: Silly Wizard
D: The Dubliners
Z: id:hn-song-107 modified by John Chambers
M: 6/8
L: 1/8
%Q: 3/8=100
K: C
% = = = = = = = = = =
"^Chorus:"\
|: "G"G2A \
| "C"c2c "G"d2d | "C"d2c- c2g | g2e g2a | a2g g2g |
| "F"a2a c'2c' | "C"a2g e2c |1 "Dm"ddd e2[cG] | "F"A3 :|2 "Dm"ded "G7"c2B | "C"c3 |]
"^Verse:"\
|: "G"G2A \
| "C"c2c "G"d2d | "C"d2c- c2g | g2e g2a | a2g- geg |
| "F"a2a c'2[bg] | "C"a2g e2c |1 "Dm"d2e d2c | "F"A3 :|2 "Dm"ded "G7"c2B | "C"c3 |]
% = = = = = = = = = =
